packages/katcn/src/icons/svg/map-solid.svg

<svg xmlns="http://www.w3.org/2000/svg" fill="none" viewBox="0 0 24 24"><path fill="#000" d="M1 8.2v10.1c0 .6.3 1.1.8 1.4.3.2.6.3 1 .3.2 0 .5 0 .7-.1l4.2-1.6V4L2.6 6C1.6 6.4 1 7.2 1 8.2m21.2-3.9c-.5-.3-1.1-.3-1.7-.1l-4.2 1.6V20l5.1-2c1-.4 1.6-1.2 1.6-2.2V5.7c0-.6-.3-1.1-.8-1.4M9.7 5v13.2l4.6 1.8V5.8L9.7 4z"/></svg>

<svg width="24" height="24" viewBox="0 0 24 24" fill="none" xmlns="http://www.w3.org/2000/svg">
<path d="M1 8.2V18.3C1 18.9 1.3 19.4 1.8 19.7C2.1 19.9 2.4 20 2.8 20C3 20 3.3 20 3.5 19.9L7.7 18.3V17.3V16.3V6V5V4L2.6 6C1.6 6.4 1 7.2 1 8.2Z" fill="black"/>
<path d="M22.2 4.3C21.7 4 21.1 4 20.5 4.2L16.3 5.8V6.8V7.8V18V19V20L21.4 18C22.4 17.6 23 16.8 23 15.8V5.7C23 5.1 22.7 4.6 22.2 4.3Z" fill="black"/>
<path d="M9.70001 5V6V16.2V17.2V18.2L14.3 20V19V18V7.8V6.8V5.8L9.70001 4V5Z" fill="black"/>
</svg>
